svg/fluentui-system-icons/ic_fluent_document_copy_20_filled.svg

<svg width="20" height="20" viewBox="0 0 20 20" fill="none" xmlns="http://www.w3.org/2000/svg">
<path d="M11 6.5V2H7.5C6.67157 2 6 2.67157 6 3.5V14.5C6 15.3284 6.67157 16 7.5 16H15.5C16.3284 16 17 15.3284 17 14.5V8H12.5C11.6716 8 11 7.32843 11 6.5ZM12 6.5V2.25L16.75 7H12.5C12.2239 7 12 6.77614 12 6.5ZM4 5C4 4.44772 4.44772 4 5 4V14.5C5 15.8807 6.11929 17 7.5 17L15 17C15 17.5523 14.5523 18 14 18H7.54839C5.58867 18 4 16.4113 4 14.4516V5Z" fill="#212121"/>
</svg>

<svg xmlns="http://www.w3.org/2000/svg" width="20" height="20"><path d="M11 6.5V2H7.5A1.5 1.5 0 0 0 6 3.5v11A1.5 1.5 0 0 0 7.5 16h8a1.5 1.5 0 0 0 1.5-1.5V8h-4.5A1.5 1.5 0 0 1 11 6.5Zm1 0V2.25L16.75 7H12.5a.5.5 0 0 1-.5-.5ZM4 5a1 1 0 0 1 1-1v10.5A2.5 2.5 0 0 0 7.5 17H15a1 1 0 0 1-1 1H7.548A3.548 3.548 0 0 1 4 14.452V5Z"/></svg>
